X:1
T:Title
%%score { ( 1 4 ) | ( 2 3 ) }
L:1/8
Q:1/4=120
M:6/4
K:F
V:1 treble nm="Grand Piano"
V:4 treble 
V:2 bass 
V:3 bass 
V:1
 A3 G A2 c4 F2 | E2 F2 G2 F6 | F3 G E2 F4 A2 | [Ec]12 | [Ec]3 [EB] [EG]2 E4 C2 | F4 G2 A6 | %6
w: H.~Kingsbury * * * *||||||
 G3 ^F G2 A4 =B2 | [Ec]12 | [Ac]3 [_A=B] [=Ac]2 [_Bd]4 [_AB]2 | [FA]4 [GB]2 [Ac]6 | %10
w: ||||
 [Ac]3 [_A=B] [=Ac]2 [^Fd]4 [Fc]2 | B6- B4 B>A | G4 G2 c4 A>G | F4 F2 B4 [DG]2 | %14
w: ||||
 E3 D E2 [EA]4 [EG]2 | F12 | A2 .A3 _A =A4 A>A | B4 A2 B4 A2 | [B,EG]4 [A,EF]2 .[B,EG]4 [EB]2 | %19
w: |||||
 A12 | A3 A c2 [Ff]4 [Fd]2 | [Ec]4 [EB]2 [FA]4 [A,F]>[A,F] | .F6 z6 | [A,CF]12 |] %24
w: |||||
V:2
 [F,CF]3 [F,B,F] [F,CF]2 [F,A,F]4 [F,A,C]2 | G,2 A,2 [C,B,C]2 [F,A,C]6 | %2
 [F,A,C]3 [F,B,C] [F,G,C]2 [F,A,C]4 [D,F,D]2 | [C,G,]12 | [C,G,]3 [C,G,] [C,G,]2 [C,C]4 B,2 | %5
 [A,C]4 [G,B,E]2 [F,CF]6 | [G,CE]3 [G,CE] [G,CE]2 [G,CF]4 [G,DF]2 | [C,C]12 | %8
 [C,C]3 [C,C] [C,C]2 [C,C]4 [C,C]2 | [F,C]4 [F,C]2 [F,C]6 | [D,D]3 [D,D] [D,D]2 [D,A,]4 [D,D]2 | %11
 [G,DG]6- [G,DG]4 [G,B,G]>[A,CF] | [B,DF]4 [B,DF]2 [B,CE]4 [CE]>[B,CE] | %13
 [A,C]4 [B,D]2 [G,DF]4[K:bass] [B,,B,]2 | [C,G,C]3 [C,F,C] [C,G,C]2 [C,C]4 [C,B,]2 | [F,A,]12 | %16
 [F,CF]2 .[F,CF]3 [F,=B,F] [F,CF]4 [F,CF]>[A,CF] | [G,DF]4 [G,^CF]2 [G,DF]4 [G,=CF]2 | %18
 C,4 C,2 z2 A2 [C,G,]2 | [F,A,F]12 | [F,A,C]3 [F,A,C] [E,G,E]2 [D,A,]4 [B,,B,]2 | %21
 [C,G,]4 [C,G,]2 [D,F,]4 D,>D, | z2 C2 B,,2 C,4 C,2 | F,12 |] %24
V:3
 x12 | .[C,C]6 z6 | x12 | x12 | x12 | x12 | x12 | x12 | x12 | x12 | x12 | x12 | x12 | %13
 x10[K:bass] x2 | x12 | x12 | x12 | x12 | z6 .C,6 | x12 | x12 | x12 | .B,,6 z6 | x12 |] %24
V:4
 x12 | x12 | x12 | x12 | x12 | x12 | x12 | x12 | x12 | x12 | x12 | x12 | x12 | x12 | x12 | x12 | %16
 x12 | x12 | x12 | x12 | x12 | x12 | [B,G]2 A2 [DFB]2 [CE]4 [B,CG]2 | x12 |] %24

